src/Assets/Icons/HomeScreen/DataManagementComponent/titleIcon6.svg

<svg width="84" height="69" viewBox="0 0 84 69" fill="none" xmlns="http://www.w3.org/2000/svg">
<path d="M31.5001 2.22655C23.5001 0.626548 14.1668 7.89322 10.5001 11.7265C11.8334 10.5404 13.5001 9.27973 9.50009 13.7266C4.50009 19.2851 3.50009 36.2266 4.00009 44.2266C4.50009 52.2266 20.0001 63.7266 33.5001 64.2266C47.0001 64.7266 65.5001 70.2266 76.0001 56.7266C86.5001 43.2266 75.0001 29.7266 71.5001 29.2266C68.0001 28.7266 67.0001 26.7266 59.0001 16.2266C51.0001 5.72656 41.5001 4.22655 31.5001 2.22655Z" fill="#0000FF"/>
<path d="M34.1718 27.1279C30.2805 27.1279 27.1279 30.2805 27.1279 34.1718C27.1279 38.0631 30.2805 41.2156 34.1718 41.2156C38.0631 41.2156 41.2156 38.0631 41.2156 34.1718C41.2156 30.2805 38.0631 27.1279 34.1718 27.1279Z" fill="white"/>
<path d="M66.8306 24.0817C62.5294 10.1357 49.5296 0 34.1769 0C15.3022 0 0 15.2971 0 34.1667C0 53.0364 15.2971 68.3436 34.1769 68.3436H61.5528C73.9504 68.3436 84 58.294 84 45.8964C84 35.3205 76.6829 26.4448 66.8306 24.0766V24.0817ZM48.0571 47.6523L42.6983 51.5436C42.2227 51.8928 41.5648 51.8573 41.1296 51.4626L37.1877 47.9306C36.2161 48.1431 35.2092 48.2646 34.1718 48.2646C33.1345 48.2646 32.1275 48.1431 31.1559 47.9306L27.214 51.4626C26.7737 51.8573 26.121 51.8877 25.6453 51.5436L20.2865 47.6523C19.8108 47.3082 19.6388 46.6706 19.8766 46.1342L22.0222 41.2865C21.0152 39.5711 20.3523 37.633 20.1499 35.5532L15.5754 32.8966C15.0643 32.5981 14.8316 31.9908 15.0137 31.4292L17.0581 25.1292C17.2402 24.5675 17.7918 24.2132 18.3737 24.274L23.6516 24.8154C24.9925 23.3075 26.6472 22.088 28.5195 21.2682L29.6277 16.0916C29.7492 15.5147 30.2602 15.1048 30.8523 15.1048H37.4761C38.0682 15.1048 38.5742 15.5147 38.7007 16.0916L39.8089 21.2682C41.6812 22.088 43.3359 23.3075 44.6769 24.8154L49.9547 24.274C50.5417 24.2132 51.0882 24.5725 51.2704 25.1292L53.3147 31.4292C53.4969 31.9908 53.2641 32.6031 52.753 32.8966L48.1786 35.5532C47.9761 37.633 47.3133 39.5711 46.3063 41.2865L48.4518 46.1342C48.6896 46.6706 48.5227 47.3082 48.0419 47.6523H48.0571ZM73.1205 48.1178L69.8516 48.9932C69.381 50.2431 68.6472 51.326 67.7364 52.2166L68.2525 55.5665C68.3082 55.941 68.1007 56.3002 67.7465 56.4369L63.7894 57.9448C63.4352 58.0814 63.0405 57.9448 62.833 57.6311L60.9911 54.7923C60.3535 54.7619 59.7159 54.6658 59.0732 54.4937C58.4357 54.3217 57.8335 54.0788 57.2668 53.7853L54.2458 55.3084C53.9068 55.4805 53.4969 55.3894 53.2641 55.0959L50.6075 51.7966C50.3696 51.5031 50.3696 51.0831 50.6075 50.7896L52.7429 48.1533C52.4089 46.9287 52.3229 45.6181 52.5455 44.3024L50.1622 41.8988C49.899 41.6306 49.8535 41.2157 50.061 40.8969L52.3786 37.3496C52.586 37.0359 52.9807 36.9043 53.3349 37.041L56.5027 38.2605C57.5805 37.552 58.8051 37.0764 60.1005 36.8841L61.6489 33.8733C61.821 33.5393 62.2055 33.3672 62.5699 33.4684L66.6586 34.5766C67.0229 34.6728 67.2658 35.0169 67.2506 35.3913L67.0735 38.7716C68.0906 39.5913 68.9104 40.6236 69.4872 41.7773L72.8371 42.3239C73.2065 42.3846 73.4899 42.6983 73.5051 43.0728L73.7176 47.3031C73.7378 47.6776 73.4899 48.0166 73.1255 48.1178H73.1205Z" fill="white"/>
<path d="M62.6055 41.4479C60.2019 40.8001 57.7274 42.217 57.0797 44.6206C56.432 47.0242 57.8488 49.4987 60.2525 50.1464C62.6561 50.7941 65.1305 49.3773 65.7782 46.9736C66.4259 44.57 65.0091 42.1006 62.6055 41.4479Z" fill="white"/>
</svg>

<svg xmlns="http://www.w3.org/2000/svg" width="84" height="69" fill="none"><path fill="#00F" d="M31.5 2.227c-8-1.6-17.333 5.666-21 9.5 1.333-1.187 3-2.447-1 2-5 5.558-6 22.5-5.5 30.5s16 19.5 29.5 20 32 6 42.5-7.5-1-27-4.5-27.5-4.5-2.5-12.5-13-17.5-12-27.5-14"/><path fill="#fff" d="M34.172 27.128a7.043 7.043 0 0 0-7.044 7.044 7.04 7.04 0 0 0 7.044 7.044 7.04 7.04 0 0 0 7.044-7.044 7.04 7.04 0 0 0-7.044-7.044"/><path fill="#fff" d="M66.83 24.082C62.53 10.136 49.53 0 34.178 0 15.302 0 0 15.297 0 34.167s15.297 34.177 34.177 34.177h27.376C73.95 68.344 84 58.294 84 45.896c0-10.575-7.317-19.451-17.17-21.82zm-18.773 23.57-5.359 3.892a1.244 1.244 0 0 1-1.568-.081l-3.942-3.532c-.972.212-1.979.334-3.016.334a14 14 0 0 1-3.016-.334l-3.942 3.532a1.25 1.25 0 0 1-1.569.08l-5.358-3.89a1.254 1.254 0 0 1-.41-1.519l2.145-4.848a14 14 0 0 1-1.872-5.733l-4.575-2.656a1.25 1.25 0 0 1-.561-1.468l2.044-6.3a1.25 1.25 0 0 1 1.316-.855l5.278.541a14.1 14.1 0 0 1 4.868-3.547l1.108-5.176a1.25 1.25 0 0 1 1.224-.987h6.624c.592 0 1.098.41 1.225.987l1.108 5.176a14.1 14.1 0 0 1 4.868 3.547l5.278-.541a1.25 1.25 0 0 1 1.315.855l2.045 6.3a1.246 1.246 0 0 1-.562 1.468l-4.574 2.656a14 14 0 0 1-1.873 5.733l2.146 4.848c.238.537.07 1.174-.41 1.518zm25.064.466-3.27.875a8.9 8.9 0 0 1-2.115 3.224l.516 3.35a.8.8 0 0 1-.505.87l-3.958 1.508a.8.8 0 0 1-.956-.314l-1.842-2.839a9 9 0 0 1-1.918-.298 9 9 0 0 1-1.806-.709l-3.021 1.523a.794.794 0 0 1-.982-.212l-2.657-3.3a.8.8 0 0 1 0-1.006l2.136-2.637a8.95 8.95 0 0 1-.198-3.85l-2.383-2.404a.8.8 0 0 1-.101-1.002l2.318-3.547a.8.8 0 0 1 .956-.309l3.168 1.22a8.9 8.9 0 0 1 3.597-1.377l1.549-3.01a.8.8 0 0 1 .92-.406l4.09 1.109c.364.096.607.44.592.814l-.178 3.38a9.1 9.1 0 0 1 2.414 3.006l3.35.547c.37.06.653.374.668.749l.213 4.23a.805.805 0 0 1-.593.815z"/><path fill="#fff" d="M62.606 41.448a4.504 4.504 0 0 0-5.526 3.173 4.504 4.504 0 0 0 3.172 5.525 4.506 4.506 0 0 0 2.353-8.699"/></svg>
